X:1
T:Rakes of Kildare -- Jig
R:jig
B:Ryan's Mammoth Collection
N: 89 462
Z: Contributed by Ray Davies,  ray:davies99.freeserve.co.uk
M:6/8
L:1/8
K:G
uD|\
D2G GFG | ABc d2e | =fef ded | cAG F3  |
DGG GFG | ABc d2e | =fed cA^F | AGG G2:|
|:ud|\
gfg def | gfg a2g | =fef ded | cAG F2d |
gfg def | gfg a2g | =fed cA^F | (AG).G G2:|
